symbols/web/filter_9_plus/materialsymbolsrounded/filter_9_plus_wght100gradN25_24px.svg

<svg xmlns="http://www.w3.org/2000/svg" height="24" width="24"><path d="M9.775 13.4h1.45q.6 0 1.025-.413.425-.412.425-1.012V8.15q0-.6-.425-1.025-.425-.425-1.025-.425h-.8q-.6 0-1.012.425Q9 7.55 9 8.15v.775q0 .625.413 1.037.412.413 1.012.413h1.6v1.6q0 .35-.225.575-.225.225-.575.225h-1.45q-.125 0-.213.1-.087.1-.087.2 0 .15.087.237.088.088.213.088Zm2.25-3.675h-1.6q-.35 0-.575-.225-.225-.225-.225-.575V8.15q0-.35.225-.575.225-.225.575-.225h.8q.35 0 .575.225.225.225.225.575Zm4.025.6v1.725q0 .125.088.212.087.088.212.088.15 0 .237-.088.088-.087.088-.212v-1.725h1.675q.125 0 .212-.088.088-.087.088-.212 0-.15-.088-.238-.087-.087-.212-.087h-1.675V7.95q0-.1-.1-.188-.1-.087-.2-.087-.15 0-.237.087-.088.088-.088.188V9.7h-1.7q-.125 0-.212.1-.088.1-.088.2 0 .15.088.237.087.088.212.088ZM8.1 16.7q-.625 0-1.038-.412-.412-.413-.412-1.038V4.85q0-.6.412-1.013.413-.412 1.038-.412h10.4q.6 0 1.013.412.412.413.412 1.013v10.4q0 .625-.412 1.038-.413.412-1.013.412Zm0-.65h10.4q.35 0 .575-.225.225-.225.225-.575V4.85q0-.35-.225-.575-.225-.225-.575-.225H8.1q-.35 0-.575.225Q7.3 4.5 7.3 4.85v10.4q0 .35.225.575.225.225.575.225Zm-2.575 3.225q-.625 0-1.037-.413-.413-.412-.413-1.037V7.075q0-.1.1-.188.1-.087.225-.087t.225.087q.1.088.1.213v10.725q0 .35.225.575.225.225.575.225h10.75q.1 0 .187.1.088.1.088.225t-.088.225q-.087.1-.212.1ZM7.3 4.05v12-12Z"/></svg>

<svg xmlns="http://www.w3.org/2000/svg" height="24" width="24"><path d="M9.775 13.4H11.225Q11.825 13.4 12.25 12.987Q12.675 12.575 12.675 11.975V8.15Q12.675 7.55 12.25 7.125Q11.825 6.7 11.225 6.7H10.425Q9.825 6.7 9.413 7.125Q9 7.55 9 8.15V8.925Q9 9.55 9.413 9.962Q9.825 10.375 10.425 10.375H12.025V11.975Q12.025 12.325 11.8 12.55Q11.575 12.775 11.225 12.775H9.775Q9.65 12.775 9.562 12.875Q9.475 12.975 9.475 13.075Q9.475 13.225 9.562 13.312Q9.65 13.4 9.775 13.4ZM12.025 9.725H10.425Q10.075 9.725 9.85 9.5Q9.625 9.275 9.625 8.925V8.15Q9.625 7.8 9.85 7.575Q10.075 7.35 10.425 7.35H11.225Q11.575 7.35 11.8 7.575Q12.025 7.8 12.025 8.15ZM16.05 10.325V12.05Q16.05 12.175 16.138 12.262Q16.225 12.35 16.35 12.35Q16.5 12.35 16.587 12.262Q16.675 12.175 16.675 12.05V10.325H18.35Q18.475 10.325 18.562 10.237Q18.65 10.15 18.65 10.025Q18.65 9.875 18.562 9.787Q18.475 9.7 18.35 9.7H16.675V7.95Q16.675 7.85 16.575 7.762Q16.475 7.675 16.375 7.675Q16.225 7.675 16.138 7.762Q16.05 7.85 16.05 7.95V9.7H14.35Q14.225 9.7 14.138 9.8Q14.05 9.9 14.05 10Q14.05 10.15 14.138 10.237Q14.225 10.325 14.35 10.325ZM8.1 16.7Q7.475 16.7 7.062 16.288Q6.65 15.875 6.65 15.25V4.85Q6.65 4.25 7.062 3.837Q7.475 3.425 8.1 3.425H18.5Q19.1 3.425 19.513 3.837Q19.925 4.25 19.925 4.85V15.25Q19.925 15.875 19.513 16.288Q19.1 16.7 18.5 16.7ZM8.1 16.05H18.5Q18.85 16.05 19.075 15.825Q19.3 15.6 19.3 15.25V4.85Q19.3 4.5 19.075 4.275Q18.85 4.05 18.5 4.05H8.1Q7.75 4.05 7.525 4.275Q7.3 4.5 7.3 4.85V15.25Q7.3 15.6 7.525 15.825Q7.75 16.05 8.1 16.05ZM5.525 19.275Q4.9 19.275 4.488 18.862Q4.075 18.45 4.075 17.825V7.075Q4.075 6.975 4.175 6.887Q4.275 6.8 4.4 6.8Q4.525 6.8 4.625 6.887Q4.725 6.975 4.725 7.1V17.825Q4.725 18.175 4.95 18.4Q5.175 18.625 5.525 18.625H16.275Q16.375 18.625 16.462 18.725Q16.55 18.825 16.55 18.95Q16.55 19.075 16.462 19.175Q16.375 19.275 16.25 19.275ZM7.3 4.05Q7.3 4.05 7.3 4.275Q7.3 4.5 7.3 4.85V15.25Q7.3 15.6 7.3 15.825Q7.3 16.05 7.3 16.05Q7.3 16.05 7.3 15.825Q7.3 15.6 7.3 15.25V4.85Q7.3 4.5 7.3 4.275Q7.3 4.05 7.3 4.05Z"/></svg>
